!!!COM: Bach, Johann Sebastian
!!!CDT: 1685/3//-1750/7/28/
!!!OTL@@DE: O Gott, du frommer Gott
!!!OTL@EN:  O pious God
!!!AGN: 4-Part Chorale
!!!SCT: BH 315
!!!SCT: BWV 399
**harm	**root	**kern	**kern	**kern	**kern
!	!	!bass	!tenor	!alto	!soprno
*	*Iorgan	*Iorgan	*Iorgan	*Iorgan	*Iorgan
*	*	*clefF4	*clefF4	*clefG2	*clefG2
*M4/4	*M4/4	*M4/4	*M4/4	*M4/4	*M4/4
*met(c)	*met(c)	*met(c)	*met(c)	*met(c)	*met(c)
*MM56	*MM56	*MM56	*MM56	*MM56	*MM56
*k[]	*k[]	*k[]	*k[]	*k[]	*k[]
*>[A,A,B]	*>[A,A,B]	*>[A,A,B]	*>[A,A,B]	*>[A,A,B]	*>[A,A,B]
*>A	*>A	*>A	*>A	*>A	*>A
*C:	*C:	*C:	*C:	*C:	*C:
vi	4EE	[4A	8c	4cc	4ee
.	.	.	8d	.	.
=1	=1	=1	=1	=1	=1
iii7	4.BB	8A]	4.e	4b	4ee
.	.	4G	.	.	.
.	.	.	.	8cc	4aa
vii7Dc	8FF#	8F	8d	8b	.
Ib	8GG	8E	8e	4cc	4gg
IV	8CC	8F	8a	.	.
V7	4DD	4G	4g	4b	16ff
.	.	.	.	.	16ee
.	.	.	.	.	8ff
=2	=2	=2	=2	=2	=2
I;	2.GG;	2.C;	2.g;	2.cc;	2.ee;
I	8GG	8C	8g	4cc	8ee
ii7	8AA	8D	8f	.	8ff
=3	=3	=3	=3	=3	=3
Ib	4GG	4E	8e	8cc	4gg
.	.	.	8d	8b	.
IV	4CC	[4F	4c	8a	4cc
.	.	.	.	16b	.
.	.	.	.	16cc	.
V7d	4DD	8F]	4g	4b	4dd
.	.	8E	.	.	.
I	4GG	8D	4g	[4cc	4ee
.	.	8C	.	.	.
=4	=4	=4	=4	=4	=4
V7	2DD	2G	4.g	8cc]	2dd
.	.	.	.	8a	.
.	.	.	.	4b	.
.	.	.	8f	.	.
I;	4GG;	4C;	4e;	4g;	4cc;
=:|!	=:|!	=:|!	=:|!	=:|!	=:|!
*>B	*>B	*>B	*>B	*>B	*>B
V7d/V	4AA	[4c	4f#	4a	4dd
=5	=5	=5	=5	=5	=5
Vb	4DD	8c]	4g	4g	4dd
.	.	8B	.	.	.
iiib	4BB	8A	4g	4b	4ee
.	.	8G	.	.	.
IVb	4CC	4A	8f	4cc	8ff
.	.	.	8e	.	8aa
vi	8EE	4B	8d	4dd	8gg
V7b	8DD	.	8g	.	8ff
!!linebreak: 2
=6	=6	=6	=6	=6	=6
I;	2.GG;	2.c;	2.g;	2.cc;	2.ee;
*G:	*G:	*G:	*G:	*G:	*G:
IV	4GG	4C	4g	8cc	4ee
.	.	.	.	8b	.
=7	=7	=7	=7	=7	=7
V7d	8AA	8c	8f#	8a	4dd
Ib	8DD	8B	8d	16g	.
.	.	.	.	16f#	.
IV	8GG	8e	8c	4g	8gg
I	8DD	8d	8B	.	16aa
.	.	.	.	.	16bb
iib	8EE	8c	8e	8cc	4aa
ii	8EE	8A	8cc	8ee	.
Ic	8DD	4d	8b	8dd	8gg
V	8AA	.	8a	8cc	8ff#
=8	=8	=8	=8	=8	=8
I;	2.DD;	2.G;	2.g;	2.b;	2.gg;
*F:	*F:	*F:	*F:	*F:	*F:
V/V	4DD	8g	4b	4dd	4gg
.	.	8f	.	.	.
=9	=9	=9	=9	=9	=9
Vb	4GG	8e	4cc	4cc	4gg
.	.	8d	.	.	.
V7d	4GG	8c	4g	4cc	4ee
.	.	8B-	.	.	.
Ib	4CC	8A	4a	4cc	4ff
.	.	8G	.	.	.
V7b	4GG	8F	4b-	4cc	4gg
.	.	8E	.	.	.
=10	=10	=10	=10	=10	=10
I;	2.CC;	2.F;	2.a;	2.cc;	2.aa;
*C:	*C:	*C:	*C:	*C:	*C:
V	4DD	4G	4g	4b	4dd
=11	=11	=11	=11	=11	=11
I	4GG	8C	4g	4cc	8ee
.	.	8D	.	.	16ff
.	.	.	.	.	16gg
IV7	4CC	8E	8g	4cc	8ff
.	.	8F	8a	.	8ee
Ic	4GG	4G	4g	4cc	4ee
V7	4DD	4G	4f	4b	8dd
.	.	.	.	.	8cc
=12	=12	=12	=12	=12	=12
I;	2.GG;	2.C;	2.e;	2.g;	2.cc;
==|!	==|!	==|!	==|!	==|!	==|!
*-	*-	*-	*-	*-	*-
!!chor2scor: -l 2 -o %b.pmx
!!!YEC: Copyright 2003 by Craig Stuart Sapp
!!!license: GNU General Public License (http://www.gnu.org/copyleft/gpl.html)
!!!SMA: 371 Bach Chorales, edited by Ludwig Erk, C.F. Peters
!!!PDT: 1850, 1865
!!!ONB: Harmony and Root analysis done manually by Craig Sapp
